ui/icon/svg/logo-designernews.svg

<svg viewBox="0 0 512 512" xmlns="http://www.w3.org/2000/svg"><path d="m295.31 122.8-72.45-58.8 72.68 122.64z"/><path d="m339.43 64v195.6h-41.6l-72.23-118.32 1.94 118.32h-45.83v-128.4l-42.62-35.2c1.14 1.44 2.28 2.88 3.31 4.44 11.43 16.68 17.14 36.6 17.14 60.6 0 59-35 98.52-87.88 98.52h-71.66v.48l228.11 187.96h283.89v-242.28z"/><path d="m111.89 162.52c0-34.8-16.23-54.12-45.38-54.12h-21.94v106.8h21.72c29.71 0 45.6-18.48 45.6-52.68z"/></svg>

<svg xmlns="http://www.w3.org/2000/svg" class="ionicon" viewBox="0 0 512 512"><title>Logo Designernews</title><path d="M295.31 122.8L222.86 64l72.68 122.64-.23-63.84z"/><path d="M339.43 64v195.6h-41.6L225.6 141.28l1.94 118.32h-45.83V131.2L139.09 96c1.14 1.44 2.28 2.88 3.31 4.44 11.43 16.68 17.14 36.6 17.14 60.6 0 59-35 98.52-87.88 98.52H0v.48L228.11 448H512V205.72z"/><path d="M111.89 162.52c0-34.8-16.23-54.12-45.38-54.12H44.57v106.8h21.72c29.71 0 45.6-18.48 45.6-52.68z"/></svg>
